svgs/sharp-light/fire-extinguisher.svg

<svg xmlns="http://www.w3.org/2000/svg" viewBox="0 0 512 512"><!--! Font Awesome Pro 6.6.0 by @fontawesome - https://fontawesome.com License - https://fontawesome.com/license (Commercial License) Copyright 2024 Fonticons, Inc. --><path d="M160 0l0 64C104.5 64 55.6 92.3 27 135.1c-7.3 11-13.4 22.9-17.8 35.6l30.2 10.7c3.6-10.1 8.4-19.7 14.3-28.4C76.5 118.6 115.6 96 160 96l0 33.1c-54.3 7.8-96 54.4-96 110.9l0 240 0 32 32 0 160 0 32 0 0-32 0-240c0-56.4-41.7-103.1-96-110.9L192 96l96 0 0 32 192 27.4 32 4.6 0-32.3 0-95.4L512 0 480 4.6 288 32l0 32-96 0 0-64L160 0zM320 100.2l0-40.5L480 36.9l0 86.2L320 100.2zM256 384L96 384l0-144c0-44.2 35.8-80 80-80s80 35.8 80 80l0 144zM96 416l160 0 0 64L96 480l0-64z"/></svg>

<svg xmlns="http://www.w3.org/2000/svg" viewBox="0 0 512 512"><!--! Font Awesome Pro 6.4.0 by @fontawesome - https://fontawesome.com License - https://fontawesome.com/license (Commercial License) Copyright 2023 Fonticons, Inc. --><path d="M160 0V64C104.5 64 55.6 92.3 27 135.1c-7.3 11-13.4 22.9-17.8 35.6l30.2 10.7c3.6-10.1 8.4-19.7 14.3-28.4C76.5 118.6 115.6 96 160 96v33.1c-54.3 7.8-96 54.4-96 110.9V480v32H96 256h32V480 240c0-56.4-41.7-103.1-96-110.9V96h96v32l192 27.4 32 4.6V127.7 32.3 0L480 4.6 288 32V64H192V0H160zM320 100.2V59.8L480 36.9v86.2L320 100.2zM256 384H96V240c0-44.2 35.8-80 80-80s80 35.8 80 80V384zM96 416H256v64H96V416z"/></svg>
